icons/phone_mb.svg

<svg width="20" height="20" viewBox="0 0 20 20" fill="none" xmlns="http://www.w3.org/2000/svg">
<path d="M16.6666 9.16579H18.3333C18.3333 4.89079 15.1058 1.66663 10.825 1.66663V3.33329C14.2099 3.33329 16.6666 5.78579 16.6666 9.16579Z" fill="#CD06FF"/>
<path d="M10.8333 6.66666C12.5858 6.66666 13.3333 7.41416 13.3333 9.16666H15C15 6.47916 13.5208 5 10.8333 5V6.66666ZM13.685 11.2025C13.5249 11.057 13.3144 10.9793 13.0982 10.986C12.8819 10.9927 12.6767 11.0832 12.5258 11.2383L10.5317 13.2892C10.0517 13.1975 9.08666 12.8967 8.09332 11.9058C7.09999 10.9117 6.79916 9.94416 6.70999 9.4675L8.75916 7.4725C8.9145 7.32177 9.0051 7.11651 9.01179 6.90017C9.01848 6.68382 8.94073 6.47336 8.79499 6.31333L5.71582 2.9275C5.57003 2.76696 5.36739 2.66958 5.15095 2.65605C4.93451 2.64251 4.72132 2.71388 4.55666 2.855L2.74832 4.40583C2.60425 4.55043 2.51826 4.74287 2.50666 4.94666C2.49416 5.155 2.25582 10.09 6.08249 13.9183C9.42082 17.2558 13.6025 17.5 14.7542 17.5C14.9225 17.5 15.0258 17.495 15.0533 17.4933C15.2571 17.4819 15.4494 17.3955 15.5933 17.2508L17.1433 15.4417C17.2845 15.2771 17.3561 15.064 17.3427 14.8475C17.3293 14.6311 17.2321 14.4284 17.0717 14.2825L13.685 11.2025Z" fill="#CD06FF"/>
</svg>

<svg width="20" height="20" fill="none" xmlns="http://www.w3.org/2000/svg"><path d="M16.667 9.166h1.666c0-4.275-3.227-7.5-7.508-7.5v1.667c3.385 0 5.842 2.453 5.842 5.833Z" fill="#CD06FF"/><path d="M10.833 6.667c1.753 0 2.5.747 2.5 2.5H15C15 6.479 13.52 5 10.833 5v1.667Zm2.852 4.536a.834.834 0 0 0-1.16.035l-1.993 2.051c-.48-.091-1.445-.392-2.439-1.383C7.1 10.912 6.8 9.944 6.71 9.467l2.05-1.995a.833.833 0 0 0 .035-1.159l-3.08-3.385a.833.833 0 0 0-1.158-.073l-1.809 1.55a.833.833 0 0 0-.241.542c-.013.208-.251 5.143 3.575 8.971 3.339 3.338 7.52 3.582 8.672 3.582.168 0 .272-.005.3-.007a.827.827 0 0 0 .54-.242l1.55-1.81a.834.834 0 0 0-.072-1.159l-3.387-3.08Z" fill="#CD06FF"/></svg>
